!!!COM: Corelli, Arcangelo
!!!OTL: Sonata da camera
!!!OPS: 4
!!!ONM: 11
!!!OMV: 2
!!!OMD: Corrente: Allegro
**kern	**fb	**kern	**kern	**kern
*part4	*part4	*part3	*part2	*part1
*staff4	*	*staff3	*staff2	*staff1
*clefF4	*	*clefF4	*clefG2	*clefG2
*k[b-e-]	*	*k[b-e-]	*k[b-e-]	*k[b-e-]
*g:	*	*g:	*g:	*g:
*M3/4	*	*M3/4	*M3/4	*M3/4
=1	=1	=1	=1	=1
8C	.	8C	8ee-	8gg
=	=	=	=	=
2.C	.	2.C	4.ee-	4.gg
.	.	.	8bn	8g
.	.	.	8ccL	8aL
.	.	.	8ddJ	8bnJ
=	=	=	=	=
4AA-X	5	4AA-X	4ee-	4cc
2GG	n	2GG	4.bn	4.dd
.	.	.	8b	8dd
=	=	=	=	=
8cL	.	8cL	2cc	2ee-
8BnJ	.	8BnJ	.	.
8cL	.	8cL	.	.
8GJ	.	8GJ	.	.
8E-L	6	8E-L	4r	4r
8GJ	.	8GJ	.	.
=	=	=	=	=
4C	.	4C	4cc	4ee-
2r	.	2r	4.dd	4.ff
.	.	.	8dd	8ff
=	=	=	=	=
8e-L	.	8e-L	2ee-	2gg
8dJ	.	8dJ	.	.
8e-L	.	8e-L	.	.
8B-J	.	8B-J	.	.
8GL	6	8GL	4r	4r
8B-J	.	8B-J	.	.
=	=	=	=	=
4E-	.	4E-	4ee-	4gg
2r	.	2r	2gg	4.ccc
.	.	.	.	8gg
=	=	=	=	=
8FL	-	8FL	2cc	2aa-X
8EnJ	.	8EnJ	.	.
8FL	.	8FL	.	.
8GJ	.	8GJ	.	.
8A-XL	6	8A-XL	4r	4r
8FJ	.	8FJ	.	.
=	=	=	=	=
8GL	n	8GL	4bn	4gg
8GGJ	.	8GGJ	.	.
2AA-X	6	2AA-X	4.cc	4.ff
.	.	.	8dd	8ff
=	=	=	=	=
2GG	n	2GG	2bn	2gg
4r	.	4r	4r	4r
=	=	=	=	=
4E-	5	4E-	4b-Xi	8ggL
.	.	.	.	8bb-J
2r	.	2r	2r	8ggL
.	.	.	.	8bb-J
.	.	.	.	8ggL
.	.	.	.	8bb-J
=	=	=	=	=
8cL	.	8cL	8ee-L	4ee-
8e-J	.	8e-J	8ggJ	.
8cL	.	8cL	8ee-L	2r
8e-J	.	8e-J	8ggJ	.
8cL	.	8cL	8ee-L	.
8e-J	.	8e-J	8ggJ	.
=	=	=	=	=
4A-X	6	4A-X	4cc	8ffL
.	.	.	.	8aa-XJ
2r	.	2r	2r	8ffL
.	.	.	.	8aa-J
.	.	.	.	8ffL
.	.	.	.	8aa-J
=	=	=	=	=
8B-L	.	8B-L	8ddL	4dd
8dJ	.	8dJ	8ffJ	.
8B-L	.	8B-L	8ddL	2r
8dJ	.	8dJ	8ffJ	.
8B-L	.	8B-L	8ddL	.
8dJ	.	8dJ	8ffJ	.
=	=	=	=	=
2G	6	2G	4b-	8b-L
.	.	.	.	8ee-J
.	.	.	4g	8b-L
.	.	.	.	8ee-J
4G	.	4G	4e-	8b-L
.	.	.	.	8ee-J
=	=	=	=	=
2A-X	5	2A-X	4r	8ccL
.	.	.	.	8ffJ
.	6	.	4a-X	8ccL
.	.	.	.	8ffJ
4AA-X	.	4AA-X	4f	8ccL
.	.	.	.	8ffJ
=	=	=	=	=
2BB-	6	2BB-	4r	8ddL
.	.	.	.	8ggJ
.	.	.	4b-	8ddL
.	.	.	.	8ggJ
4B-	.	4B-	4g	8ddL
.	.	.	.	8ggJ
=	=	=	=	=
2c	5	2c	4r	8ee-L
.	.	.	.	8aa-XJ
.	-r6	.	4cc	8ee-L
.	.	.	.	8aa-J
4AA-X	.	4AA-X	4ee-	8ccL
.	.	.	.	8aa-J
=	=	=	=	=
2AA-X	6 4	2AA-X	2f	4.dd
.	.	.	.	8b-
4GG	6	4GG	[4e-	8ee-L
.	.	.	.	8gJ
=	=	=	=	=
4AA-X	.	4AA-X	4e-]	8ccL
.	.	.	.	8fJ
2BB-	.	2BB-	2d	4.f
.	.	.	.	8f
=	=	=	=	=
4E-	.	4E-	4e-	8gL
.	.	.	.	8e-J
2r	.	2r	2r	8gL
.	.	.	.	8b-J
.	.	.	.	8gL
.	.	.	.	8e-J
=	=	=	=	=
8DL	6	8DL	8fL	4b-
8BB-J	.	8BB-J	8b-J	.
8DL	.	8DL	8fL	2r
8FJ	.	8FJ	8dJ	.
8DL	.	8DL	8fL	.
8BB-J	.	8BB-J	8b-J	.
=	=	=	=	=
4F	-	4F	4a-X	8a-XL
.	.	.	.	8fJ
2r	.	2r	2r	8a-L
.	.	.	.	8ccJ
.	.	.	.	8a-L
.	.	.	.	8fJ
=	=	=	=	=
8E-L	6	8E-L	8gL	4cc
8CJ	.	8CJ	8ccJ	.
8E-L	.	8E-L	8gL	2r
8GJ	.	8GJ	8e-J	.
8E-L	.	8E-L	8gL	.
8CJ	.	8CJ	8ccJ	.
=	=	=	=	=
4G	n	4G	4bn	8ggL
.	.	.	.	8ddJ
2r	.	2r	2r	8bnL
.	.	.	.	8ddJ
.	.	.	.	8ggL
.	.	.	.	8ddJ
=	=	=	=	=
8cL	.	8cL	8ccL	4ee-
8e-J	.	8e-J	8gJ	.
8cL	.	8cL	8e-L	2r
8e-J	.	8e-J	8gJ	.
8AL	.	8AL	8ccL	.
8cJ	.	8cJ	8ee-J	.
=	=	=	=	=
4F#X	6	4F#X	4a	8ddL
.	.	.	.	8aJ
2r	.	2r	2r	8f#XL
.	.	.	.	8aJ
.	.	.	.	8ddL
.	.	.	.	8aJ
=	=	=	=	=
8GL	.	8GL	4dd	2b-
8B-J	.	8B-J	.	.
8dL	.	8dL	2b-	.
8B-J	.	8B-J	.	.
8GL	6	8GL	.	4ee-
8E-J	.	8E-J	.	.
=	=	=	=	=
8FL	6	8FL	4dd	2a
8AJ	.	8AJ	.	.
8dL	.	8dL	2a	.
8AJ	.	8AJ	.	.
8FL	6	8FL	.	4dd
8DJ	.	8DJ	.	.
=	=	=	=	=
8E-L	6	8E-L	4cc	2g
8GJ	.	8GJ	.	.
8cL	.	8cL	4.g	.
8GJ	.	8GJ	.	.
8E-L	6	8E-L	.	4cc
8CJ	.	8CJ	8ee-	.
=	=	=	=	=
4.D	#	4.D	4.a	4.f#X
8BB-	6	8BB-	8dd	8d
4C	.	4C	4ee-	[4g
=	=	=	=	=
4GG	.	4GG	4g	8gL]
.	.	.	.	8aJ
2D	#	2D	2f#X	2a
=	=	=	=	=
8GL	.	8GL	4g	2g
8B-J	.	8B-J	.	.
8dL	.	8dL	2b-	.
8B-J	.	8B-J	.	.
8GL	6	8GL	.	4ee-
8E-J	.	8E-J	.	.
=	=	=	=	=
8FL	6	8FL	4dd	2a
8AJ	.	8AJ	.	.
8dL	.	8dL	2a	.
8AJ	.	8AJ	.	.
8FL	6	8FL	.	4dd
8DJ	.	8DJ	.	.
=	=	=	=	=
8E-L	6	8E-L	4cc	2g
8GJ	.	8GJ	.	.
8cL	.	8cL	4.g	.
8GJ	.	8GJ	.	.
8E-L	6	8E-L	.	4cc
8CJ	.	8CJ	8ee-	.
=	=	=	=	=
4.D	#	4.D	4.a	4.f#X
8BB-	6	8BB-	8dd	8d
4C	.	4C	4ee-	[4g
=	=	=	=	=
4GG	.	4GG	4g	8gL]
.	.	.	.	8aJ
2D	#	2D	2f#X	2a
=	=	=	=	=
2GG	.	2GG	2g	2g
8r	.	8r	8r	8r
8G	n	8G	8bn	8dd
==	==	==	==	==
2G	n	2G	2bn	4.dd
.	.	.	.	8gg
4r	.	4r	4r	8ffL
.	.	.	.	8ggJ
=	=	=	=	=
4BBn	6	4BBn	4dd	8ddL
.	.	.	.	8ggJ
2r	.	2r	2r	8ffL
.	.	.	.	8ggJ
.	.	.	.	8ddL
.	.	.	.	8ggJ
=	=	=	=	=
8cL	.	8cL	8gL	4ee-
8e-J	.	8e-J	8ccJ	.
8GL	.	8GL	8ee-L	2r
8cJ	.	8cJ	8ccJ	.
8E-L	6	8E-L	8gL	.
8GJ	.	8GJ	8ccJ	.
=	=	=	=	=
4C	.	4C	4e-	8gL
.	.	.	.	8ccJ
2r	.	2r	2r	8e-L
.	.	.	.	8gJ
.	.	.	.	8ccL
.	.	.	.	8gJ
=	=	=	=	=
8A-XL	6	8A-XL	8fL	4a-X
8cJ	.	8cJ	8a-XJ	.
8FL	.	8FL	8ccL	2r
8A-J	.	8A-J	8a-J	.
8DL	6	8DL	8fL	.
8FJ	.	8FJ	8a-J	.
=	=	=	=	=
4BB-	.	4BB-	4d	8fL
.	.	.	.	8b-J
2r	.	2r	2r	8dL
.	.	.	.	8fJ
.	.	.	.	8b-L
.	.	.	.	8fJ
=	=	=	=	=
8E-L	.	8E-L	8b-L	4g
8GJ	.	8GJ	8e-J	.
8BB-L	.	8BB-L	8gL	2r
8E-J	.	8E-J	8b-J	.
8GGL	6	8GGL	8ee-L	.
8BB-J	.	8BB-J	8b-J	.
=	=	=	=	=
2EE-	.	2EE-	2g	8b-L
.	.	.	.	8e-J
.	.	.	.	8gL
.	.	.	.	8b-J
4GG	6	4GG	[4b-	8ee-L
.	.	.	.	8b-J
=	=	=	=	=
2AA-X	9	2AA-X	4b-]	8ccL
.	.	.	.	8e-J
.	8	.	4e-	8a-XL
.	.	.	.	8ccJ
4AAn	6	4AAn	4cc	8ffL
.	.	.	.	8ccJ
=	=	=	=	=
2BB-	.	2BB-	2f	8ddL
.	.	.	.	8b-J
.	.	.	.	8ccL
.	.	.	.	8ddJ
4GG	6	4GG	4b-	8ee-L
.	.	.	.	8bb-J
=	=	=	=	=
4AA-X	.	4AA-X	4ee-	(8aa-XL
.	.	.	.	8ggJ)
2BB-	5 4	2BB-	4.ee-	4.ff
.	3	.	.	.
.	.	.	8dd	8ee-
=	=	=	=	=
2.E-	.	2.E-	2.ee-	2.ee-
=	=	=	=	=
2En	6	2En	2cc	4.gg
.	.	.	.	8aa-X
4E	-7 5	4E	4dd-X	4bb-
=	=	=	=	=
2F	-	2F	4.cc	4.aa-X
.	.	.	8ff	8ccc
[4BB-	6 #4\	[4BB-	4gg	4een
=	=	=	=	=
4BB-]	-7 5	4BB-]	4aa-X	4ff
2C	5 4	2C	2gg	4.ff
.	n	.	.	.
.	.	.	.	8een
=	=	=	=	=
8FL	-	8FL	2.ff	2.ff
8GJ	.	8GJ	.	.
8FL	.	8FL	.	.
8E-J	.	8E-J	.	.
8DL	.	8DL	.	.
8CJ	.	8CJ	.	.
=	=	=	=	=
2.BBn	-7	2.BBn	4dd	4aa-X
.	6	.	2dd	4.gg
.	.	.	.	8ff
=	=	=	=	=
8cL	.	8cL	2.g	2.ee-
8dJ	.	8dJ	.	.
8cL	.	8cL	.	.
8B-XiJ	.	8B-XiJ	.	.
8A-XL	.	8A-XL	.	.
8GJ	.	8GJ	.	.
=	=	=	=	=
2.F	7 -	2.F	4a-X	4ee-
.	6	.	2a-	4.dd
.	.	.	.	8cc
=	=	=	=	=
8GL	n	8GL	2.d	2.bn
8FJ	.	8FJ	.	.
8GL	.	8GL	.	.
8A-XJ	.	8A-XJ	.	.
8GL	.	8GL	.	.
8FJ	.	8FJ	.	.
=	=	=	=	=
4E-	6	4E-	4g	8ee-L
.	.	.	.	8ffJ
2r	.	2r	2r	8ggL
.	.	.	.	8ee-J
.	.	.	.	8ffL
.	.	.	.	8ggJ
=	=	=	=	=
8FL	-	8FL	4cc	4a-X
8GJ	.	8GJ	.	.
8A-XL	.	8A-XL	4ff	2r
8FJ	.	8FJ	.	.
8GL	.	8GL	[4aa-X	.
8A-J	.	8A-J	.	.
=	=	=	=	=
4BB-	-7	4BB-	4aa-]	8ddL
.	.	.	.	8ee-J
2r	.	2r	2dd	8ffL
.	.	.	.	8ddJ
.	.	.	.	8ee-L
.	.	.	.	8ffJ
=	=	=	=	=
8E-L	7	8E-L	4dd	4g
8FJ	.	8FJ	.	.
8GL	.	8GL	4.gg	2r
8E-J	.	8E-J	.	.
8FL	.	8FL	.	.
8GJ	.	8GJ	8gg	.
=	=	=	=	=
4AA-X	7	4AA-X	4gg	8ccL
.	.	.	.	8ddJ
2r	.	2r	2cc	8ee-L
.	.	.	.	8ccJ
.	.	.	.	8ddL
.	.	.	.	8ee-J
=	=	=	=	=
8DL	7	8DL	4cc	4f
8E-J	.	8E-J	.	.
8FL	.	8FL	4.ff	2r
8DJ	.	8DJ	.	.
8E-L	.	8E-L	.	.
8FJ	.	8FJ	8ff	.
=	=	=	=	=
4GG	7 n	4GG	4ff	8bnL
.	.	.	.	8ccJ
2r	.	2r	2bn	8ddL
.	.	.	.	8bJ
.	.	.	.	8ccL
.	.	.	.	8ddJ
=	=	=	=	=
8CL	.	8CL	2g	4e-
8DJ	.	8DJ	.	.
8E-L	6	8E-L	.	[2gg
8CJ	.	8CJ	.	.
8DL	.	8DL	4gg	.
8E-J	.	8E-J	.	.
=	=	=	=	=
8FL	9 -	8FL	2aa-X	4gg]
8GJ	.	8GJ	.	.
8A-XL	6	8A-XL	.	4cc
8FJ	.	8FJ	.	.
8GL	.	8GL	4aa-	[4ff
8A-J	.	8A-J	.	.
=	=	=	=	=
4BBn	6 5	4BBn	4gg	4ff]
4C	.	4C	[2cc	4ee-
4F	6 5 -	4F	.	4dd
=	=	=	=	=
4G	6 4	4G	4cc]	4ee-
2GG	5 n	2GG	2bn	2dd
=	=	=	=	=
8CL	.	8CL	2cc	4cc
8DJ	.	8DJ	.	.
8E-L	6	8E-L	.	[2gg
8CJ	.	8CJ	.	.
8DL	.	8DL	4gg	.
8E-J	.	8E-J	.	.
=	=	=	=	=
8FL	9 -	8FL	2aa-X	4gg]
8GJ	.	8GJ	.	.
8A-XL	6	8A-XL	.	4cc
8FJ	.	8FJ	.	.
8GL	.	8GL	4aa-	[4ff
8A-J	.	8A-J	.	.
=	=	=	=	=
4BBn	6 5	4BBn	4gg	4ff]
4C	.	4C	[2cc	4ee-
4F	6 5 -	4F	.	4dd
=	=	=	=	=
4G	6 4	4G	4cc]	4ee-
2GG	5 n	2GG	2bn	2dd
=	=	=	=	=
2C	.	2C	2cc	2cc
8r	.	8r	8r	8r
=:|!	=:|!	=:|!	=:|!	=:|!
*-	*-	*-	*-	*-
!!!system-decoration: [{s1,s2},s3,s4]
!!!YEM: CC BY-NC-SA 4.0; CCARH; DCML
!!!RDF**kern: i = editorial accidental